src/img/cal.svg

<svg xmlns="http://www.w3.org/2000/svg" width="18" height="20" fill="none">
  <path fill="#0499DD" d="M0 4c0-1.1.9-2 2-2h14c.5304 0 1.0391.21071 1.4142.58579C17.7893 2.96086 18 3.46957 18 4v14c0 .5304-.2107 1.0391-.5858 1.4142S16.5304 20 16 20H2c-.53043 0-1.039141-.2107-1.414214-.5858C.210714 19.0391 0 18.5304 0 18V4Zm2 2v12h14V6H2Zm2-6h2v2H4V0Zm8 0h2v2h-2V0ZM4 9h2v2H4V9Zm0 4h2v2H4v-2Zm4-4h2v2H8V9Zm0 4h2v2H8v-2Zm4-4h2v2h-2V9Zm0 4h2v2h-2v-2Z"/>
</svg>

<svg width="18" height="20" viewBox="0 0 18 20" fill="none" xmlns="http://www.w3.org/2000/svg">
<path d="M0 4C0 2.9 0.9 2 2 2H16C16.5304 2 17.0391 2.21071 17.4142 2.58579C17.7893 2.96086 18 3.46957 18 4V18C18 18.5304 17.7893 19.0391 17.4142 19.4142C17.0391 19.7893 16.5304 20 16 20H2C1.46957 20 0.960859 19.7893 0.585786 19.4142C0.210714 19.0391 0 18.5304 0 18V4ZM2 6V18H16V6H2ZM4 0H6V2H4V0ZM12 0H14V2H12V0ZM4 9H6V11H4V9ZM4 13H6V15H4V13ZM8 9H10V11H8V9ZM8 13H10V15H8V13ZM12 9H14V11H12V9ZM12 13H14V15H12V13Z" fill="#0499DD"/>
</svg>
